layouts/icon-pack/potion_stamina.svg

<?xml version="1.0" encoding="UTF-8"?>
<svg width="1200pt" height="1200pt" version="1.1" viewBox="0 0 1200 1200" xmlns="http://www.w3.org/2000/svg">
 <g fill="#fff">
  <path d="m520.48 160.92h159.05c18.082-0.023437 35.414-7.2266 48.191-20.023 12.773-12.797 19.949-30.145 19.941-48.227v-18.75c0-4.7109-1.8711-9.2305-5.2031-12.562s-7.8516-5.2031-12.562-5.2031h-259.88c-4.6836 0.023438-9.168 1.8984-12.477 5.2109-3.3086 3.3125-5.1758 7.8008-5.1953 12.484v18.75c-0.023438 18.094 7.1406 35.457 19.918 48.27 12.777 12.812 30.121 20.027 48.215 20.051z"/>
  <path d="m417.4 1031.8c9.0938 9.3242 15.355 21.035 18.07 33.773l11.977 55.922c1.3516 6.3555 4.8477 12.055 9.8984 16.141 5.0508 4.0859 11.355 6.3164 17.852 6.3125h249.61c6.4961 0.003907 12.801-2.2266 17.852-6.3125 5.0508-4.0859 8.5469-9.7852 9.8984-16.141l11.977-55.922c2.7148-12.738 8.9766-24.449 18.07-33.773l80.297-82.547c7.5039-7.668 12.527-17.422 14.41-27.984 1.8867-10.562 0.54688-21.449-3.8398-31.242-99.773-221.16-165.91-565.8-182.46-657.96-1.1602-6.5664-4.5977-12.512-9.707-16.801-5.1094-4.2852-11.562-6.6328-18.23-6.6367h-126.14c-6.668 0.003906-13.121 2.3516-18.23 6.6367-5.1094 4.2891-8.5469 10.234-9.707 16.801-16.547 92.25-82.688 436.9-182.46 658.05-4.3672 9.7812-5.6953 20.648-3.8086 31.191 1.8828 10.547 6.8945 20.281 14.379 27.941zm7.3828-143.48c45.164-130.27 86.719-301.01 100.52-359.88 1.3945-5.9922 4.7773-11.336 9.5938-15.168 4.8164-3.8281 10.785-5.918 16.938-5.9258h96.305c6.1562 0.003906 12.133 2.0898 16.953 5.918 4.8203 3.832 8.207 9.1797 9.6016 15.176 13.828 58.875 55.359 229.69 100.52 359.88 4.1406 11.84 1.8828 24.98-5.9766 34.758-13.5 16.781-36.328 45.234-61.5 77.133-6.8906 8.7461-17.41 13.852-28.547 13.852h-158.39c-11.168 0.007812-21.719-5.1172-28.617-13.898-25.172-31.898-48-60.352-61.5-77.133-7.8203-9.7812-10.051-22.895-5.9062-34.711z"/>
 </g>
</svg>

<?xml version="1.0" encoding="UTF-8" standalone="no"?>
<!DOCTYPE svg PUBLIC "-//W3C//DTD SVG 1.1//EN" "http://www.w3.org/Graphics/SVG/1.1/DTD/svg11.dtd">
<svg width="100%" height="100%" viewBox="0 0 262 512" version="1.1" xmlns="http://www.w3.org/2000/svg" xmlns:xlink="http://www.w3.org/1999/xlink" xml:space="preserve" xmlns:serif="http://www.serif.com/" style="fill-rule:evenodd;clip-rule:evenodd;stroke-linejoin:round;stroke-miterlimit:2;">
    <g transform="matrix(1,0,0,1,-321.894,-56.1549)">
        <g transform="matrix(0.470678,0,0,0.470678,170.386,29.7241)">
            <path d="M520.48,160.92L679.53,160.92C697.612,160.897 714.944,153.693 727.721,140.897C740.494,128.1 747.67,110.752 747.662,92.67L747.662,73.92C747.662,69.209 745.791,64.689 742.459,61.358C739.127,58.027 734.607,56.155 729.897,56.155L470.017,56.155C465.333,56.178 460.849,58.053 457.54,61.366C454.231,64.678 452.364,69.167 452.345,73.85L452.345,92.6C452.321,110.694 459.485,128.057 472.263,140.87C485.04,153.682 502.384,160.897 520.478,160.921L520.48,160.92Z" style="fill:white;fill-rule:nonzero;"/>
            <path d="M417.4,1031.8C426.494,1041.12 432.755,1052.84 435.47,1065.57L447.447,1121.5C448.799,1127.85 452.295,1133.55 457.345,1137.64C462.396,1141.72 468.7,1143.95 475.197,1143.95L724.807,1143.95C731.303,1143.95 737.608,1141.72 742.659,1137.64C747.71,1133.55 751.206,1127.85 752.558,1121.5L764.535,1065.57C767.25,1052.84 773.511,1041.12 782.605,1031.8L862.902,949.253C870.406,941.585 875.429,931.831 877.312,921.269C879.199,910.707 877.859,899.82 873.472,890.027C773.699,668.867 707.562,324.227 691.012,232.067C689.852,225.501 686.414,219.555 681.305,215.266C676.196,210.981 669.743,208.633 663.075,208.629L536.935,208.629C530.267,208.633 523.814,210.981 518.705,215.266C513.596,219.555 510.158,225.5 508.998,232.067C492.451,324.317 426.31,668.967 326.538,890.117C322.171,899.898 320.843,910.765 322.729,921.308C324.612,931.855 329.624,941.589 337.108,949.249L417.4,1031.8ZM424.783,888.32C469.947,758.05 511.502,587.31 525.303,528.44C526.697,522.448 530.08,517.104 534.897,513.272C539.713,509.444 545.682,507.354 551.835,507.346L648.14,507.346C654.296,507.35 660.273,509.436 665.093,513.264C669.913,517.096 673.3,522.444 674.694,528.44C688.522,587.315 730.053,758.13 775.214,888.32C779.355,900.16 777.097,913.3 769.238,923.078C755.738,939.859 732.91,968.312 707.738,1000.21C700.847,1008.96 690.328,1014.06 679.191,1014.06L520.801,1014.06C509.633,1014.07 499.082,1008.95 492.184,1000.17C467.012,968.267 444.184,939.813 430.684,923.032C422.863,913.251 420.633,900.137 424.777,888.321L424.783,888.32Z" style="fill:white;fill-rule:nonzero;"/>
        </g>
    </g>
</svg>
